X:1050
T:Plaid And Shawl
C:Joe Buchanan's Scottish Tome - Page 634.3
I:634 3
Z:Carl Allison
R:Waltz
L:1/4
M:3/4
K:C
E/F/ | "C"G E F | G2 c | e3- | e c d | e2 c | "D7"d c B | "F"A3- | A c A |
"C"G E F | G3 | "Am"c A B | c B c | "Em"e d c | A2 e | "G"d3- | d2 E/F/ |
"C"G E F | G2 c | e3- | e c d | e2 c | "D7"d c B | "F"A3- | A2 c/A/ |
"C"G c e | d B d | "F"c A c | "C"G2 E/F/ | "D7"G c e | "G7"d2 B | "C"c3 | c2 |]
W:Errata: Added "C" chord first measure second line.

